packages/tokens/icons/compass/size16Px.svg

<svg viewBox="0 0 16 16" fill="none" xmlns="http://www.w3.org/2000/svg" width="1em" height="1em"><path d="M8.00001 1.74988V3.49998M8.00001 12.5V14.5001M1.5 8.00002H3.5M12.5 8.00002H14.5" stroke="currentColor" stroke-linecap="round"/><path d="M7.01762 7.04762L10.5113 5.48869L8.95232 8.98232L5.48106 10.5189L7.01762 7.04762Z" stroke="currentColor" stroke-linejoin="round"/><circle cx="8" cy="8" r="6.5" stroke="currentColor"/></svg>

<svg xmlns="http://www.w3.org/2000/svg" fill="none" viewBox="0 0 16 16" width="1em" height="1em"><path stroke="currentColor" stroke-linecap="round" d="M8 1.75V3.5m0 9v2M1.5 8h2m9 0h2"/><path stroke="currentColor" stroke-linejoin="round" d="m7.018 7.048 3.493-1.56-1.559 3.494-3.47 1.537 1.536-3.471Z"/><circle cx="8" cy="8" r="6.5" stroke="currentColor"/></svg>
